azure-patterns/svg-two-gears.svg

<svg xmlns="http://www.w3.org/2000/svg" viewBox="0 0 49 49">
                                
                            
	<path d="M33.4704 33.8664V30.4054H29.883C29.5798 28.1121 28.6704 26.012 27.3314 24.2647L29.8662 21.7362L27.4156 19.2917L24.8809 21.8118C23.1293 20.4761 21.0156 19.5689 18.7251 19.2665V15.6963H15.2556V19.2749C12.9567 19.5773 10.8514 20.4845 9.09985 21.8202L6.56511 19.2917L4.11458 21.7362L6.6409 24.2647C5.30195 26.012 4.39248 28.1205 4.08932 30.4054H0.501953V33.8664H4.08932C4.39248 36.1597 5.30195 38.2598 6.6409 40.0071L4.10616 42.5356L6.55669 44.9802L9.09143 42.4516C10.843 43.7873 12.9567 44.6945 15.2472 44.997V48.5755H18.7167V44.997C21.0156 44.6945 23.1209 43.7873 24.8725 42.4516L27.4072 44.9802L29.8577 42.5356L27.323 40.0071C28.662 38.2598 29.5714 36.1513 29.8746 33.8664H33.4704V33.8664ZM16.982 40.0827C12.5946 40.0827 9.02406 36.5209 9.02406 32.1443C9.02406 27.7677 12.5946 24.2059 16.982 24.2059C21.3693 24.2059 24.9398 27.7677 24.9398 32.1443C24.9398 36.5209 21.3777 40.0827 16.982 40.0827Z" fill="#50E6FF"></path>
	<path d="M48.459 11.8905V9.74843H46.2443C46.059 8.32876 45.4948 7.0351 44.6696 5.95144L46.2359 4.38897L44.7201 2.87689L43.1453 4.43937C42.059 3.61613 40.7622 3.0533 39.339 2.86849V0.65918H37.1917V2.86849C35.7685 3.0533 34.4717 3.61613 33.3853 4.43937L31.819 2.87689L30.3032 4.38897L31.8696 5.95144C31.0443 7.0351 30.4801 8.32876 30.2948 9.74843H28.0801V11.8905H30.2948C30.4801 13.3102 31.0443 14.6039 31.8696 15.6875L30.3032 17.25L31.819 18.7621L33.3853 17.1996C34.4717 18.0228 35.7685 18.5857 37.1917 18.7705V20.9882H39.339V18.7789C40.7622 18.5941 42.059 18.0312 43.1453 17.208L44.7117 18.7705L46.2274 17.2584L44.6611 15.6959C45.4864 14.6123 46.0506 13.3186 46.2359 11.8989H48.459V11.8905ZM38.2696 15.7295C35.558 15.7295 33.3517 13.5286 33.3517 10.8237C33.3517 8.11875 35.558 5.91784 38.2696 5.91784C40.9811 5.91784 43.1874 8.11875 43.1874 10.8237C43.1874 13.5286 40.9811 15.7295 38.2696 15.7295Z" fill="#0078D4"></path>
</svg>

<svg xmlns="http://www.w3.org/2000/svg" viewBox="0 0 49 49"><path d="M33.47 33.866v-3.46h-3.587a12.858 12.858 0 0 0-2.552-6.141l2.535-2.529-2.45-2.444-2.535 2.52a12.958 12.958 0 0 0-6.156-2.546v-3.57h-3.47v3.579A12.923 12.923 0 0 0 9.1 21.82l-2.535-2.528-2.45 2.444 2.526 2.529a12.893 12.893 0 0 0-2.552 6.14H.502v3.461h3.587a12.858 12.858 0 0 0 2.552 6.141l-2.535 2.529 2.45 2.444 2.535-2.528a12.959 12.959 0 0 0 6.156 2.545v3.578h3.47v-3.578a12.924 12.924 0 0 0 6.155-2.545l2.535 2.528 2.45-2.444-2.534-2.529a12.893 12.893 0 0 0 2.552-6.14h3.595zm-16.488 6.217c-4.387 0-7.958-3.562-7.958-7.939 0-4.376 3.57-7.938 7.958-7.938 4.387 0 7.958 3.562 7.958 7.938 0 4.377-3.562 7.939-7.958 7.939z" fill="#50E6FF"/><path d="M48.459 11.89V9.748h-2.215a7.959 7.959 0 0 0-1.574-3.797l1.566-1.562-1.516-1.512-1.575 1.562a7.998 7.998 0 0 0-3.806-1.57V.658h-2.147v2.21a7.999 7.999 0 0 0-3.807 1.57L31.82 2.877l-1.516 1.512 1.567 1.562a7.958 7.958 0 0 0-1.575 3.797H28.08v2.143h2.215a7.957 7.957 0 0 0 1.575 3.796l-1.567 1.563 1.516 1.512 1.566-1.562a7.999 7.999 0 0 0 3.807 1.57v2.218h2.147v-2.21a7.998 7.998 0 0 0 3.806-1.57l1.567 1.563 1.515-1.513-1.566-1.562a7.957 7.957 0 0 0 1.575-3.797h2.223v-.008zm-10.19 3.84c-2.711 0-4.917-2.201-4.917-4.906 0-2.705 2.206-4.906 4.918-4.906 2.711 0 4.917 2.2 4.917 4.906 0 2.705-2.206 4.905-4.917 4.905z" fill="#0078D4"/></svg>
